!!!OTL: WARUM SIND DIE THRAENEN UNTERM MOND SO VIEL
!!!ARE: Europa, Mitteleuropa, Deutschland
!!!SCT: B0743
!!!YEM: Copyright 1995, estate of Helmut Schaffrath.
**kern
*ICvox
*Ivox
*M4/4
*k[f#]
*G:
=1
{4g
4g
4f#
4f#
=2
2e
2d}
=3
{4dd
4g
4f#
4g
=4
2a
2r}
=5
{4b
4b
4cc#
4cc#
=6
2dd
2a}
=7
{4d
8d
8e
4f#
4e
=8
2d
2r}
=9
{4a
4a
4b
4b
=10
2cc
2a}
=11
{4dd
4dd
4cc
4b
=12
2a
2r}
=13
{4g
4g
4f#
4f#
=14
2e
2d}
=15
{4dd
8g
8a
4b
4a
=16
2g
2r}
==
!!!AGN: Moral - Lied, Trost, religioes
!!!ONB: ESAC (Essen Associative Code) Database: BOEHME
!!!AMT: simple quadruple
!!!AIN: vox
!!!EED: Helmut Schaffrath
!!!EEV: 1.0
*-
